static/assets/img/icons/theme/shopping/price-2.svg

<svg width="24px" height="24px" viewBox="0 0 24 24" version="1.1" xmlns="http://www.w3.org/2000/svg" xmlns:xlink="http://www.w3.org/1999/xlink">
    <title>Icon For Price #2</title>
    <g stroke="none" stroke-width="1" fill="none" fill-rule="evenodd">
        <rect opacity="0" x="0" y="0" width="24" height="24"></rect>
        <g transform="translate(12.500000, 12.000000) rotate(-315.000000) translate(-12.500000, -12.000000) translate(6.000000, 1.000000)" fill="#000000" opacity="0.3">
            <path d="M0.353553391,7.14644661 L3.35355339,7.14644661 C3.4100716,7.14644661 3.46549471,7.14175791 3.51945496,7.13274826 C3.92739876,8.3050906 5.04222146,9.14644661 6.35355339,9.14644661 C8.01040764,9.14644661 9.35355339,7.80330086 9.35355339,6.14644661 C9.35355339,4.48959236 8.01040764,3.14644661 6.35355339,3.14644661 C5.04222146,3.14644661 3.92739876,3.98780262 3.51945496,5.16014496 C3.46549471,5.15113531 3.4100716,5.14644661 3.35355339,5.14644661 L0.436511831,5.14644661 C0.912589923,2.30873327 3.3805571,0.146446609 6.35355339,0.146446609 C9.66726189,0.146446609 12.3535534,2.83273811 12.3535534,6.14644661 L12.3535534,19.1464466 C12.3535534,20.2510161 11.4581229,21.1464466 10.3535534,21.1464466 L2.35355339,21.1464466 C1.24898389,21.1464466 0.353553391,20.2510161 0.353553391,19.1464466 L0.353553391,7.14644661 Z" transform="translate(6.353553, 10.646447) rotate(-360.000000) translate(-6.353553, -10.646447) "></path>
            <rect x="2.35355339" y="13.1464466" width="8" height="2" rx="1"></rect>
            <rect x="3.35355339" y="17.1464466" width="6" height="2" rx="1"></rect>
        </g>
    </g>
</svg>

<svg height="24" viewBox="0 0 24 24" width="24" xmlns="http://www.w3.org/2000/svg"><g fill="none" fill-rule="evenodd"><path d="m0 0h24v24h-24z" opacity="0"/><g fill="#000" opacity=".3" transform="matrix(.70710678 .70710678 -.70710678 .70710678 15.681981 -.374369)"><path d="m.35355339 7.14644661h3c.05651821 0 .11194132-.0046887.16590157-.01369835.4079438 1.17234234 1.5227665 2.01369835 2.83409843 2.01369835 1.65685425 0 3-1.34314575 3-3s-1.34314575-3-3-3c-1.31133193 0-2.42615463.84135601-2.83409843 2.01369835-.05396025-.00900965-.10938336-.01369835-.16590157-.01369835h-2.91704156c.47607809-2.83771334 2.94404527-5 5.91704156-5 3.3137085 0 6.00000001 2.6862915 6.00000001 6v12.99999999c0 1.1045695-.8954305 2-2 2h-8.00000001c-1.1045695 0-2-.8954305-2-2z"/><rect height="2" rx="1" width="8" x="2.353553" y="13.146447"/><rect height="2" rx="1" width="6" x="3.353553" y="17.146447"/></g></g></svg>
